blockchains/avalanche/logo.svg

<svg fill="none" height="84" viewBox="0 0 84 84" width="84" xmlns="http://www.w3.org/2000/svg"><path d="m67.9043 14.4096h-51.8643v47.1383h51.8643z" fill="#fff"/><path clip-rule="evenodd" d="m83.9719 42c0 23.1653-18.7913 41.9441-41.972 41.9441-23.1805 0-41.972068-18.7788-41.972068-41.9441 0-23.1651 18.791568-41.9441528 41.972068-41.9441528 23.1807 0 41.972 18.7790528 41.972 41.9441528zm-53.8657 16.6916h-8.1456c-1.7116 0-2.5571 0-3.0726-.3295-.5568-.3608-.8971-.9584-.9383-1.618-.031-.6076.3918-1.3498 1.2373-2.8336l20.1125-35.4274c.8558-1.5044 1.2888-2.2566 1.8353-2.5348.5877-.2988 1.2889-.2988 1.8766 0 .5465.2782.9796 1.0304 1.8353 2.5348l4.1347 7.2128.0211.0368c.9243 1.6139 1.3931 2.4324 1.5978 3.2914.2267.9376.2267 1.9268 0 2.8645-.2063.8655-.6703 1.6899-1.6086 3.3282l-10.5646 18.6628-.0273.0478c-.9304 1.6273-1.402 2.452-2.0555 3.0742-.7114.6803-1.5672 1.1745-2.5055 1.4532-.8559.2368-1.8147.2368-3.7326.2368zm20.5703 0h11.6717c1.7219 0 2.5882 0 3.1041-.3395.5566-.3608.907-.969.9383-1.6281.0296-.5881-.3839-1.3013-1.1943-2.6989-.0279-.0476-.0559-.096-.0844-.1452l-5.8465-9.9949-.0665-.1126c-.8215-1.3883-1.2362-2.0894-1.7688-2.3604-.5874-.2989-1.2788-.2989-1.8662 0-.5362.2782-.9692 1.0098-1.825 2.4832l-5.8257 9.995-.02.0344c-.8528 1.4711-1.279 2.2063-1.2482 2.8095.0412.6596.3815 1.2672.9382 1.628.5053.3295 1.3714.3295 3.0933.3295z" fill="#e84142" fill-rule="evenodd"/></svg>

<svg width="84" height="84" viewBox="0 0 84 84" fill="none" xmlns="http://www.w3.org/2000/svg">
<path d="M67.9043 14.4096H16.04V61.5479H67.9043V14.4096Z" fill="white"/>
<path fill-rule="evenodd" clip-rule="evenodd" d="M83.9719 42C83.9719 65.1653 65.1806 83.9441 41.9999 83.9441C18.8194 83.9441 0.027832 65.1653 0.027832 42C0.027832 18.8349 18.8194 0.0558472 41.9999 0.0558472C65.1806 0.0558472 83.9719 18.8349 83.9719 42ZM30.1062 58.6916H21.9606C20.249 58.6916 19.4035 58.6916 18.888 58.3621C18.3312 58.0013 17.9909 57.4037 17.9497 56.7441C17.9187 56.1365 18.3415 55.3943 19.187 53.9105L39.2995 18.4831C40.1553 16.9787 40.5883 16.2265 41.1348 15.9483C41.7225 15.6495 42.4237 15.6495 43.0114 15.9483C43.5579 16.2265 43.991 16.9787 44.8467 18.4831L48.9814 25.6959L49.0025 25.7327C49.9268 27.3466 50.3956 28.1651 50.6003 29.0241C50.827 29.9617 50.827 30.9509 50.6003 31.8886C50.394 32.7541 49.93 33.5785 48.9917 35.2168L38.4271 53.8796L38.3998 53.9274C37.4694 55.5547 36.9978 56.3794 36.3443 57.0016C35.6329 57.6819 34.7771 58.1761 33.8388 58.4548C32.9829 58.6916 32.0241 58.6916 30.1062 58.6916ZM50.6765 58.6916H62.3482C64.0701 58.6916 64.9364 58.6916 65.4523 58.3521C66.0089 57.9913 66.3593 57.3831 66.3906 56.724C66.4202 56.1359 66.0067 55.4227 65.1963 54.0251C65.1684 53.9775 65.1404 53.9291 65.1119 53.8799L59.2654 43.885L59.1989 43.7724C58.3774 42.3841 57.9627 41.683 57.4301 41.412C56.8427 41.1131 56.1513 41.1131 55.5639 41.412C55.0277 41.6902 54.5947 42.4218 53.7389 43.8952L47.9132 53.8902L47.8932 53.9246C47.0404 55.3957 46.6142 56.1309 46.645 56.7341C46.6862 57.3937 47.0265 58.0013 47.5832 58.3621C48.0885 58.6916 48.9546 58.6916 50.6765 58.6916Z" fill="#E84142"/>
</svg>
